assets/icons/events_icon.svg

<svg width="24" height="24" viewBox="0 0 24 24" fill="none" xmlns="http://www.w3.org/2000/svg">
<path fill-rule="evenodd" clip-rule="evenodd" d="M5.9668 17.9161C5.9668 15.9541 8.7158 14.2461 11.9728 14.2461C15.2118 14.2461 17.9788 15.9381 17.9788 17.8991C17.9788 19.8601 15.2298 20.3681 11.9728 20.3681C8.7338 20.3681 5.9668 19.8781 5.9668 17.9161Z" stroke="white" stroke-width="1.5" stroke-linecap="round" stroke-linejoin="round"/>
<path fill-rule="evenodd" clip-rule="evenodd" d="M15.8226 7.6C15.8226 5.474 14.0986 3.75 11.9726 3.75C9.84657 3.75 8.12257 5.474 8.12257 7.6C8.11657 9.718 9.82657 11.442 11.9456 11.449H11.9726C14.0986 11.449 15.8226 9.726 15.8226 7.6Z" stroke="white" stroke-width="1.5" stroke-linecap="round" stroke-linejoin="round"/>
<path d="M18.3623 10.391C19.5993 10.06 20.5113 8.93205 20.5113 7.58905C20.5113 6.18805 19.5183 5.01805 18.1963 4.74805" stroke="white" stroke-width="1.5" stroke-linecap="round" stroke-linejoin="round"/>
<path d="M18.9434 13.5449C20.6974 13.5449 22.1954 14.7339 22.1954 15.7959C22.1954 16.4209 21.6784 17.1019 20.8944 17.2859" stroke="white" stroke-width="1.5" stroke-linecap="round" stroke-linejoin="round"/>
<path d="M5.58408 10.391C4.34608 10.06 3.43408 8.93205 3.43408 7.58905C3.43408 6.18805 4.42808 5.01805 5.74908 4.74805" stroke="white" stroke-width="1.5" stroke-linecap="round" stroke-linejoin="round"/>
<path d="M5.002 13.5449C3.248 13.5449 1.75 14.7339 1.75 15.7959C1.75 16.4209 2.267 17.1019 3.052 17.2859" stroke="white" stroke-width="1.5" stroke-linecap="round" stroke-linejoin="round"/>
</svg>

<svg width="24" height="24" fill="none" xmlns="http://www.w3.org/2000/svg"><path clip-rule="evenodd" d="M5.967 17.916c0-1.962 2.749-3.67 6.006-3.67 3.239 0 6.006 1.692 6.006 3.653s-2.75 2.47-6.006 2.47c-3.24 0-6.006-.49-6.006-2.453zM15.823 7.6a3.85 3.85 0 0 0-7.7 0 3.837 3.837 0 0 0 3.823 3.849h.027a3.85 3.85 0 0 0 3.85-3.849z" stroke="#fff" stroke-width="1.5" stroke-linecap="round" stroke-linejoin="round"/><path d="M18.362 10.391a2.901 2.901 0 0 0-.166-5.643M18.943 13.545c1.754 0 3.252 1.189 3.252 2.25 0 .626-.517 1.307-1.3 1.49M5.584 10.391a2.9 2.9 0 0 1 .165-5.643M5.002 13.545c-1.754 0-3.252 1.189-3.252 2.25 0 .626.517 1.307 1.302 1.49" stroke="#fff" stroke-width="1.5" stroke-linecap="round" stroke-linejoin="round"/></svg>
